Origami/48x48/apps/soulseek.svg

<svg width="48" height="48" version="1" xmlns="http://www.w3.org/2000/svg">
 <path d="m24 4c-11.08 0-20 8.92-20 20s8.92 20 20 20 20-8.92 20-20-8.92-20-20-20z" style="fill:#4f4f4f"/>
 <path d="m21.831004 37c-0.569277-0.159276-0.774818-0.447041-1.267403-1.500821-0.676307-1.446808-0.675212-1.416438-0.08298-2.299881 0.821331-1.225266 1.604069-3.404618 1.604069-3.999361 0-0.374909-0.368607-0.67043-1.281729-1.027593-1.967379-0.769532-4.493958-2.070503-5.868562-3.093295-1.68362-1.252716-3.256062-3.260602-3.745875-4.896752-0.344356-1.15027-0.229821-1.398721 0.449991-0.976113 3.56703 2.064883 4.681734 2.470558 8.216751 2.793814 2.196311-0.0964 3.3511-1.828956 3.265107-3.387777-0.07032-1.175862-0.471876-2.176259-0.939487-3.681444-0.263708-0.848831-0.117055-1.146244-0.06894-1.472212 0.03315-0.22467 0.118111-0.431025 0.188765-0.458569 0.947384 0.799202 2.06494 0.861033 2.790749 1.129152 2.142803 0.817768 2.892782 1.287108 3.200461 2.56376 0.153613 0.637366 0.99367 1.067782 1.427668 1.494443 0.205681 0.202201 0.373972 0.420452 0.373972 0.484998 0 0.328194-1.482027 0.408045-2.355316 0.159124-0.767816-0.218853-0.848244 0.338202-0.769343 1.046649 0.118085 1.883576 1.991036 1.958044 4.073767 2.121876 1.736942 0.136631 4.699358-0.658495 6.950255-1.633371 0.471409-0.204171 0.924584-0.35695 1.007072-0.33951-0.767752 3.316654-4.069752 6.281843-6.923354 7.491645-1.407606 0.57369-3.439862 1.228134-4.050277 1.304299-1.51764 0.189369-2.037912 0.389685-2.283246 0.879097-0.27966 0.557865-0.690711 3.126089-0.843119 5.079178-0.364543 1.634301-2.019719 2.206454-3.068971 2.218655z" style="opacity:.2"/>
 <path d="m24 4c-11.079015 0-19.998222 8.92-19.998222 20 0 0.168-4e-3 0.333 0 0.5 0.2643765-10.846 9.0871922-19.5 19.998222-19.5s19.734246 8.654 19.998223 19.5c4e-3 -0.167 0-0.332 0-0.5 0-11.08-8.919208-20-19.998223-20z" style="fill:#ffffff;opacity:.1"/>
 <path d="m4.0117 24.5c-0.0041 0.167-0.0117 0.332-0.0117 0.5 0 11.08 8.92 20 20 20s20-8.92 20-20c0-0.168-8e-3 -0.333-0.012-0.5-0.264 10.846-9.076 19.5-19.988 19.5s-19.724-8.654-19.988-19.5z" style="opacity:.2"/>
 <path d="m21.831004 36.000002c-0.569277-0.159276-0.774818-0.447041-1.267403-1.500821-0.676307-1.446808-0.675212-1.416438-0.08298-2.299881 0.821331-1.225266 1.604069-3.404618 1.604069-3.999361 0-0.374909-0.368607-0.67043-1.281729-1.027593-1.967379-0.769532-4.493958-2.070503-5.868562-3.093295-1.68362-1.252716-3.256062-3.260602-3.745875-4.896752-0.344356-1.15027-0.229821-1.398721 0.449991-0.976113 3.56703 2.064883 4.681734 2.470558 8.216751 2.793814 2.196311-0.0964 3.3511-1.828956 3.265107-3.387777-0.07032-1.175862-0.471876-2.176259-0.939487-3.681444-0.263708-0.848831-0.117055-1.146244-0.06894-1.472212 0.03315-0.22467 0.118111-0.431025 0.188765-0.458569 0.947384 0.799202 2.06494 0.861033 2.790749 1.129152 2.142803 0.817768 2.892782 1.287108 3.200461 2.56376 0.153613 0.637366 0.99367 1.067782 1.427668 1.494443 0.205681 0.202201 0.373972 0.420452 0.373972 0.484998 0 0.328194-1.482027 0.408045-2.355316 0.159124-0.767816-0.218853-0.848244 0.338202-0.769343 1.046649 0.118085 1.883576 1.991036 1.958044 4.073767 2.121876 1.736942 0.136631 4.699358-0.658495 6.950255-1.633371 0.471409-0.204171 0.924584-0.35695 1.007072-0.33951-0.767752 3.316654-4.069752 6.281843-6.923354 7.491645-1.407606 0.57369-3.439862 1.228134-4.050277 1.304299-1.51764 0.189369-2.037912 0.389685-2.283246 0.879097-0.27966 0.557865-0.690711 3.126089-0.843119 5.079178-0.364543 1.634301-2.019719 2.206454-3.068971 2.218655z" style="fill:#4895fb"/>
 <path d="m22.300781 12c-0.070654 0.027544-0.156303 0.234314-0.189453 0.458984-0.040027 0.271178-0.132205 0.541848-0.015625 1.107422 0.00624-0.032452 0.010836-0.074975 0.015625-0.107422 0.03315-0.22467 0.118799-0.43144 0.189453-0.458984 0.947384 0.799202 2.065207 0.860787 2.791016 1.128906 2.142803 0.817768 2.89154 1.287801 3.199219 2.564453 0.125246 0.519669 0.679246 0.893394 1.125 1.248047 0.380202-0.043058 0.677734-0.128791 0.677734-0.269531 0-0.064546-0.169319-0.282174-0.375-0.484375-0.433998-0.426661-1.274121-0.856775-1.427734-1.494141-0.307679-1.276652-1.056416-1.746685-3.199219-2.564453-0.725809-0.268119-1.843632-0.329704-2.791016-1.128906zm-11.068359 6.019531c-0.279959-0.05037-0.284432 0.276875-0.082031 1.003907 0.104975-0.016091 0.26256 0.043273 0.488281 0.183593 3.56703 2.064883 4.68178 2.469713 8.216797 2.792969 2.196311-0.0964 3.351618-1.829851 3.265625-3.388672-0.006871-0.11489-0.030021-0.223763-0.042969-0.335937-0.22306 1.350422-1.335744 2.641789-3.222656 2.724609-3.535017-0.323256-4.649767-0.728086-8.216797-2.792969-0.169953-0.105652-0.305294-0.169336-0.40625-0.1875zm27.767578 1.007813c-0.082488-0.01744-0.536403 0.135673-1.007812 0.339844-2.250897 0.974875-5.212277 1.769443-6.949219 1.632812-1.989116-0.156468-3.768835-0.249232-4.029297-1.896484-0.070267 0.19962-0.079374 0.466047-0.044922 0.77539 0.118085 1.883576 1.991488 1.957262 4.074219 2.121094 1.736942 0.136631 4.698322-0.657937 6.949219-1.632812 0.242085-0.10485 0.47542-0.194209 0.660156-0.25586 0.142737-0.356078 0.262803-0.717424 0.347656-1.083984zm-17.042969 9.839844c-0.251072 0.91802-0.849718 2.396902-1.476562 3.332031-0.446262 0.665697-0.554912 0.815835-0.292969 1.466797 0.07218-0.131578 0.162375-0.271989 0.292969-0.466797 0.821331-1.225266 1.603515-3.405257 1.603515-4 0-0.117461-0.049179-0.225819-0.126953-0.332031z" style="fill:#ffffff;opacity:.1"/>
</svg>

<svg xmlns="http://www.w3.org/2000/svg" width="48" height="48" version="1">
 <path style="fill:#4f4f4f" d="M 24,4 C 12.92,4 4,12.92 4,24 4,35.08 12.92,44 24,44 35.08,44 44,35.08 44,24 44,12.92 35.08,4 24,4 Z"/>
 <path style="opacity:0.2" d="m 21.831004,37 c -0.569277,-0.159276 -0.774818,-0.447041 -1.267403,-1.500821 -0.676307,-1.446808 -0.675212,-1.416438 -0.08298,-2.299881 0.821331,-1.225266 1.604069,-3.404618 1.604069,-3.999361 0,-0.374909 -0.368607,-0.67043 -1.281729,-1.027593 -1.967379,-0.769532 -4.493958,-2.070503 -5.868562,-3.093295 -1.68362,-1.252716 -3.256062,-3.260602 -3.745875,-4.896752 -0.344356,-1.15027 -0.229821,-1.398721 0.449991,-0.976113 3.56703,2.064883 4.681734,2.470558 8.216751,2.793814 2.196311,-0.0964 3.3511,-1.828956 3.265107,-3.387777 -0.07032,-1.175862 -0.471876,-2.176259 -0.939487,-3.681444 -0.263708,-0.848831 -0.117055,-1.146244 -0.06894,-1.472212 0.03315,-0.22467 0.118111,-0.431025 0.188765,-0.458569 0.947384,0.799202 2.06494,0.861033 2.790749,1.129152 2.142803,0.817768 2.892782,1.287108 3.200461,2.56376 0.153613,0.637366 0.99367,1.067782 1.427668,1.494443 0.205681,0.202201 0.373972,0.420452 0.373972,0.484998 0,0.328194 -1.482027,0.408045 -2.355316,0.159124 -0.767816,-0.218853 -0.848244,0.338202 -0.769343,1.046649 0.118085,1.883576 1.991036,1.958044 4.073767,2.121876 1.736942,0.136631 4.699358,-0.658495 6.950255,-1.633371 0.471409,-0.204171 0.924584,-0.35695 1.007072,-0.33951 -0.767752,3.316654 -4.069752,6.281843 -6.923354,7.491645 -1.407606,0.57369 -3.439862,1.228134 -4.050277,1.304299 -1.51764,0.189369 -2.037912,0.389685 -2.283246,0.879097 -0.27966,0.557865 -0.690711,3.126089 -0.843119,5.079178 -0.364543,1.634301 -2.019719,2.206454 -3.068971,2.218655 z"/>
 <path style="opacity:0.1;fill:#ffffff" d="M 24,4 C 12.920985,4 4.0017778,12.92 4.0017778,24 c 0,0.168 -0.004,0.333 0,0.5 C 4.2661543,13.654 13.08897,5 24,5 c 10.91103,0 19.734246,8.654 19.998223,19.5 0.004,-0.167 0,-0.332 0,-0.5 C 43.998223,12.92 35.079015,4 24,4 Z"/>
 <path style="opacity:0.2" d="M 4.0117,24.5 C 4.0076,24.667 4,24.832 4,25 4,36.08 12.92,45 24,45 35.08,45 44,36.08 44,25 44,24.832 43.992,24.667 43.988,24.5 43.724,35.346 34.912,44 24,44 13.088,44 4.276,35.346 4.012,24.5 Z"/>
 <path style="fill:#4895fb" d="m 21.831004,36.000002 c -0.569277,-0.159276 -0.774818,-0.447041 -1.267403,-1.500821 -0.676307,-1.446808 -0.675212,-1.416438 -0.08298,-2.299881 0.821331,-1.225266 1.604069,-3.404618 1.604069,-3.999361 0,-0.374909 -0.368607,-0.67043 -1.281729,-1.027593 -1.967379,-0.769532 -4.493958,-2.070503 -5.868562,-3.093295 -1.68362,-1.252716 -3.256062,-3.260602 -3.745875,-4.896752 -0.344356,-1.15027 -0.229821,-1.398721 0.449991,-0.976113 3.56703,2.064883 4.681734,2.470558 8.216751,2.793814 2.196311,-0.0964 3.3511,-1.828956 3.265107,-3.387777 -0.07032,-1.175862 -0.471876,-2.176259 -0.939487,-3.681444 -0.263708,-0.848831 -0.117055,-1.146244 -0.06894,-1.472212 0.03315,-0.22467 0.118111,-0.431025 0.188765,-0.458569 0.947384,0.799202 2.06494,0.861033 2.790749,1.129152 2.142803,0.817768 2.892782,1.287108 3.200461,2.56376 0.153613,0.637366 0.99367,1.067782 1.427668,1.494443 0.205681,0.202201 0.373972,0.420452 0.373972,0.484998 0,0.328194 -1.482027,0.408045 -2.355316,0.159124 -0.767816,-0.218853 -0.848244,0.338202 -0.769343,1.046649 0.118085,1.883576 1.991036,1.958044 4.073767,2.121876 1.736942,0.136631 4.699358,-0.658495 6.950255,-1.633371 0.471409,-0.204171 0.924584,-0.35695 1.007072,-0.33951 -0.767752,3.316654 -4.069752,6.281843 -6.923354,7.491645 -1.407606,0.57369 -3.439862,1.228134 -4.050277,1.304299 -1.51764,0.189369 -2.037912,0.389685 -2.283246,0.879097 -0.27966,0.557865 -0.690711,3.126089 -0.843119,5.079178 -0.364543,1.634301 -2.019719,2.206454 -3.068971,2.218655 z"/>
 <path style="fill:#ffffff;opacity:0.1" d="M 22.300781 12 C 22.230127 12.027544 22.144478 12.234314 22.111328 12.458984 C 22.071301 12.730162 21.979123 13.000832 22.095703 13.566406 C 22.101943 13.533954 22.106539 13.491431 22.111328 13.458984 C 22.144478 13.234314 22.230127 13.027544 22.300781 13 C 23.248165 13.799202 24.365988 13.860787 25.091797 14.128906 C 27.2346 14.946674 27.983337 15.416707 28.291016 16.693359 C 28.416262 17.213028 28.970262 17.586753 29.416016 17.941406 C 29.796218 17.898348 30.09375 17.812615 30.09375 17.671875 C 30.09375 17.607329 29.924431 17.389701 29.71875 17.1875 C 29.284752 16.760839 28.444629 16.330725 28.291016 15.693359 C 27.983337 14.416707 27.2346 13.946674 25.091797 13.128906 C 24.365988 12.860787 23.248165 12.799202 22.300781 12 z M 11.232422 18.019531 C 10.952463 17.969161 10.94799 18.296406 11.150391 19.023438 C 11.255366 19.007347 11.412951 19.066711 11.638672 19.207031 C 15.205702 21.271914 16.320452 21.676744 19.855469 22 C 22.05178 21.9036 23.207087 20.170149 23.121094 18.611328 C 23.114223 18.496438 23.091073 18.387565 23.078125 18.275391 C 22.855065 19.625813 21.742381 20.91718 19.855469 21 C 16.320452 20.676744 15.205702 20.271914 11.638672 18.207031 C 11.468719 18.101379 11.333378 18.037695 11.232422 18.019531 z M 39 19.027344 C 38.917512 19.009904 38.463597 19.163017 37.992188 19.367188 C 35.741291 20.342063 32.779911 21.136631 31.042969 21 C 29.053853 20.843532 27.274134 20.750768 27.013672 19.103516 C 26.943405 19.303136 26.934298 19.569563 26.96875 19.878906 C 27.086835 21.762482 28.960238 21.836168 31.042969 22 C 32.779911 22.136631 35.741291 21.342063 37.992188 20.367188 C 38.234273 20.262338 38.467608 20.172979 38.652344 20.111328 C 38.795081 19.75525 38.915147 19.393904 39 19.027344 z M 21.957031 28.867188 C 21.705959 29.785208 21.107313 31.26409 20.480469 32.199219 C 20.034207 32.864916 19.925557 33.015054 20.1875 33.666016 C 20.25968 33.534438 20.349875 33.394027 20.480469 33.199219 C 21.3018 31.973953 22.083984 29.793962 22.083984 29.199219 C 22.083984 29.081758 22.034805 28.9734 21.957031 28.867188 z"/>
</svg>
